X: 20554
T: SLOW AIR
C: Copyright.--John McGlashan.
%R: air, jig
B: W. Hamilton "Universal Tune-Book" Vol. 2 Glasgow 1846 p.55 #4
S: http://s3-eu-west-1.amazonaws.com/itma.dl.printmaterial/book_pdfs/hamiltonvol2web.pdf
Z: 2016 John Chambers <jc:trillian.mit.edu>
M: 6/8
L: 1/8
K: G
% - - - - - - - - - - - - - - - - - - - - - - - - -
D |\
(GA).B (cd).e | dBG A2D | GAB c2e | dcA G2 :: d |\
(gf).e (dc).B | (cd).e A2c | (Bc).d ecA | G3 FAd |\
(gf).e (dc).B | c2d (e/f/) Hg (f/e/) | (d>c)B A>dF | G3- G2 :|
% - - - - - - - - - - - - - - - - - - - - - - - - -

%%sep 1 1 500
%%sep 1 1 500

